components/icon/svg/24/navigation_arrow-up.svg

<?xml version="1.0" encoding="UTF-8"?>
<svg width="24px" height="24px" viewBox="0 0 24 24" version="1.1" xmlns="http://www.w3.org/2000/svg" xmlns:xlink="http://www.w3.org/1999/xlink">
    <!-- Generator: Sketch 64 (93537) - https://sketch.com -->
    <title>ic-db_navigation_arrow-up_24</title>
    <desc>Created with Sketch.</desc>
    <g id="Symbols" stroke="none" stroke-width="1" fill="none" fill-rule="evenodd">
        <g id="24dp-Icon/Navigation/Arrow-Up" fill="#282D37">
            <path d="M12.0026412,20.0026412 C12.5651412,20.0026412 13.0026412,19.5651412 13.0026412,19.0026412 L13.0026412,7.40894121 L17.2838412,11.6901412 C17.5026412,11.9089412 17.7526412,12.0026412 18.0026412,12.0026412 C18.4401412,12.0026412 19.0026412,11.6276412 19.0026412,10.9714412 C19.0026412,10.7214412 18.9088412,10.4714412 18.7214412,10.2839412 L12.7214412,4.28394121 C12.5467555,4.1092555 12.3271065,4.02736162 12.1104803,4.00752838 L12.0026412,4.00264121 C11.7526412,3.97144121 11.4876412,4.08014121 11.2838412,4.28394121 L5.28384121,10.2839412 C5.09644121,10.4714412 5.00264121,10.7526412 5.00264121,10.9714412 C5.00264121,11.5339412 5.47144121,12.0026412 6.00264121,12.0026412 C6.28384121,12.0026412 6.51764121,11.8939412 6.72144121,11.6901412 L11.0026412,7.40894121 L11.0026412,19.0026412 C11.0026412,19.5651412 11.4401412,20.0026412 12.0026412,20.0026412 Z" id="🎨-Color"></path>
        </g>
    </g>
</svg>

<svg width="24" height="24" xmlns="http://www.w3.org/2000/svg"><path d="M12.003 20.003c.562 0 1-.438 1-1V7.409l4.28 4.281a.998.998 0 00.72.313c.437 0 1-.375 1-1.032a.97.97 0 00-.282-.687l-6-6a.975.975 0 00-.61-.276l-.108-.005c-.25-.032-.515.077-.72.28l-6 6a1.026 1.026 0 00-.28.688c0 .563.468 1.032 1 1.032a.981.981 0 00.718-.313l4.282-4.281v11.594c0 .562.437 1 1 1z" fill="#282D37" fill-rule="evenodd"/></svg>
